X:1
T:Piano Concerto No. 5
T:Piano Concerto No. 5
T:"Emperor" 2nd  Movement
T:Ludwig van Beethoven
T:Arr. for 2 pianos by Franz Liszt
C:Ludwig van Beethoven
Z:Arr. for 2 pianos by Franz Liszt
%%score { ( 1 4 ) | ( 2 3 ) } { ( 5 8 9 ) | ( 6 7 10 ) }
L:1/8
Q:1/4=52
M:4/4
K:B
V:1 treble nm="Piano I" snm="Pno. I"
V:4 treble 
V:2 bass 
V:3 bass 
V:5 bass nm="Piano II" snm="Pno. II"
V:8 bass 
V:9 bass 
V:6 bass 
V:7 bass 
V:10 bass 
V:1
"^Adagio un poco mosso" z8 | z8 | z8 | z8 | z8 | z8 | z8 | z8 | %8
!f! [Bb]2 [cc']2 [dd']2"_dim." [Gg][Bb] | [Bb]2 [Aa]2!p! [Bb]2 z2 | z8 | z8 | z8 | %13
 z4 [ee']2 [cc']2 |!p! [dd']2 z2 z4[Q:1/4=48] |!pp! f'2- (3f'e'd' (3c'ba (3c'bg | %16
 (3fed (3cBA (3BFE (3DCB, | A,{/e} e'- (3e'd'c' (3bab (3d'c'b | (3agf (3edc (3BAB{/A} (3cAE | %19
 (3Dd3/2c/ (3cBA A2 G G | (3Ge3/2d/ (3dcB B2 AA | (3Af3/2e/ (3edc c B2 B | %22
 B!turn!c/4B/4A/4B/4 B/c/^e/g/ b/c'/^e'/g'/ b'/g'/b'/e'/ | %23
 g'/f'/d'/c'/ b/a/g/f/ d/c/B/A/ c/B/G/^E/ | G2- G/F/^E/F/!pp! TF3- F/ ^E/ | F2 z2 z4 | z8 | %27
!pp!{/=a} =a'2- (3a'=g'f' (3e'=d'c' (3e'd'b | (3=a=gf (3e=dc (3d=A=G (3FE=D | %29
 (3C z{/_b} _b'- (3b'=a'=g' (3f'e'=d' (3c'd'^d' | (3f'e'=d' (3c'_b=a =g/f/e/=d/ c/_B/=A/=G/ | %31
 F2 z =A (3A=a3/2=g/ (3gfe | e=d z3/2 d/ =d'/=c'/b/=a/ =g/f/e/c/ |[Q:1/4=50] =cB z2[Q:1/4=52] z4 | %34
!f![Q:1/4=54] (([=df]2 [e=g]/)).[f=a]/.[gb]/.[a^c']/ .[b=d']/.[c'e']/.[d'f']/.[e'=g']/ .[f'=a']/.[e'g']/.[d'f']/.[=ge']/ | %35
 .[f=d']/.[ec']/.[=db]/.[c=a]/ .[B=g]/.[=Af]/.[=Ge]/.[Fd]/ .[Ec]/.[Bd]/.[ce]/.[df]/ .[eg]/.[^df]/.[eg]/.[ce]/ | %36
"_dim." .[e=g]/.[ce]/.[eg]/.[^df]/ .[eg]/.[df]/.[eg]/.[ce]/ .[eg]/.[ce]/.[eg]/.[df]/ .[eg]/.[df]/.[eg]/.[ce]/ | %37
 .[e=g]/.[ce]/.[eg]/.[^df]/ .[eg]/.[ce]/.[eg]/.[df]/ .[eg]/.[ce]/.[eg]/.[ce]/ .[eg]/.[ce]/.[eg]/.[ce]/ | %38
!p! Te4"^♮" Tf/8=g/8f/8g/8f/8g/8f/8g/8f/8g/8f/8g/8f/8g/8f/8g/8f/8g/8f/8g/8f/8g/8f/8g/8f/8g/8f/8g/8f/8g/8f/8g/8 | %39
"^♮""_cresc." T=g/8=a/8g/8a/8g/8a/8g/8a/8g/8a/8g/8a/8g/8a/8g/8a/8 T^g2 T=a2 T^a2 | %40
 Tb4"^♮" Tb/8=c'/8b/8c'/8b/8c'/8b/8c'/8b/8c'/8b/8c'/8b/8c'/8b/8c'/8b/8c'/8b/8c'/8b/8c'/8b/8c'/8b/8c'/8b/8c'/8b/8c'/8b/8c'/8 | %41
"^♮" T=c'/8=d'/8c'/8d'/8c'/8d'/8c'/8d'/8c'/8d'/8c'/8d'/8c'/8d'/8c'/8d'/8 T^c'2 T=d'2 T^d'2 | %42
 Te'4 T^e'4 | %43
 f'/8g'/8f'/8g'/8f'/8g'/8f'/8g'/8f'/8g'/8f'/8g'/8^e'/4f'/4!f! (3g'!>(!f'=e' (3^d'c'b ^a/g/f/e/!>)! | %44
!p![Q:1/4=60] [FB^d]2 [FBd]2 [F^Ac]2 [FBd]2 | !turn!Bc/4B/4A/4B/4 f/e/ z/ d/ d c3 | %46
 [FBf]2 [FBf]2 [GB^eg]2 !turn!ab/4a/4g/4a/4 | %47
 ([ec']/[db]/).[fa]/.[eg]/ ([eg]/[df]/).[ce]/.[Bd]/ ([Bd] [Ac]3) | %48
"^♯" !turn!fg/4f/4^e/4f/4 [=efe']2 d'>b ff |!pp! Tf/8g/8f/8g/8f/8g/8f/8g/8^e/f/!p! e'>c' d'>b ff | %50
"_cresc." [FBdf]2 [^^FAc^^f]2 [GBg]2 z2 | [GBg]2 [Aca]2 [Bdb]2!mp! z2 | z8 | %53
 z4!p! B/ b3/2 a3/2 x/ |"_cresc." B3/2 x/ c'3/2 x/ d3/2 x/ x2 | %55
 b/d'/b/f'/ d/b/f/d'/!8va(! a'/!mf!e''/c''/a'/ f'/e'/c'/b/!8va)! | %56
"_dim." a/(e'/=g/)(e'/ f/)(e'/b/)(e'/ a/)(e'/g/)(e'/ f/)(e'/b/)(e'/ | %57
 a/)([c'e']/=g/)([c'e']/ f/)([c'e']/b/)([c'e']/ a/)([c'e']/g/)([c'e']/ f/)([c'e']/b/)!p!([c'e']/ | %58
"_cresc." f/)([c'e']/f/) z/ z/ ([c'e']/f/) z/ z/ ([c'e']/f/) z/ z/ ([c'e']/f/)!mp!([c'e']/ | %59
 f/)(d'/b/)(d'/ f/)(d'/b/)(d'/ f/)(c'/a/)(c'/ f/)(d'/b/)(d'/ | %60
 ^g/)(e'/b/)(e'/ g/)(e'/c'/)(e'/ f/)(c'/a/)(c'/ f/)(c'/a/)(c'/ | %61
 f/)(f'/b/)(f'/ f/)(f'/b/)(f'/ g/)(g'/b/)(g'/ a/)(a'/c'/)(a'/ | %62
 b/)(b'/d'/)(b'/ f/)(d'/b/)(d'/ f/)(c'/a/)(c'/ f/)(c'/a/)(c'/ | %63
 f/)(e'/c'/)(e'/ f/)(e'/c'/)(e'/ f/)(d'/b/)(d'/ f/)(d'/b/)(d'/ | %64
 f/)(e'/c'/)(e'/ f/)(e'/c'/)(e'/ f/)(d'/b/)(d'/ f/)(d'/b/)(d'/ | %65
 f/)(d'/b/)(d'/ ^^f/)(d'/a/)(d'/ g/)(d'/b/)(d'/ g/)(d'/b/)(d'/ | %66
 g/)(d'/b/)(d'/ a/)(f'/c'/)(f'/ b/)(f'/d'/)(b/ f/)(d/B/)(d/ | %67
"_cresc." G/)(g/e/)(g/ c/)(a/f/)(a/ d/)(b/f/)(b/ g/)(b/g/)(e'/ | %68
!mp! f/)!>(!(d'/b/)(d'/ f/)(e'/c'/)(e'/ g/)(d'/b/)(d'/ g/)(d'/b/)!p!(d'/!>)! | %69
"_cresc." g/)(d'/b/)(d'/ a/)(f'/c'/)(f'/ b/)(f'/d'/)!mp!(f'/"_dim." b/)(g'/e'/)(g'/ | %70
 b/)(f'/d'/)(f'/ b/)(b'/d'/)(b'/ c'/)(a'/e'/)(a'/ c'/)(a'/e'/)a'/ | %71
 =c'/=a'/d'/a'/ c'/a'/d'/a'/ b/=g'/e'/g'/ b/g'/e'/g'/ | %72
 =a/f'/=c'/f'/ =g/e'/^c'/e'/ g/e'/c'/e'/ f/e'/c'/e'/ | %73
!pp! f/(d'/b/)(d'/ =g/)(e'/b/)(e'/ f/)(e'/c'/)(e'/ f/)(e'/c'/)e'/ | %74
 f/(d'/b/)(d'/ =g/)(e'/b/)(e'/ f/)(e'/c'/)(e'/ f/)(e'/c'/)(e'/ | %75
"_dim." f/)(d'/b/)(d'/ d/)(b/f/)(b/ B/)(f/d/)(f/ F/)(d/B/)(d/ | D/)(B/F/)(B/ B,/)(F/D/)(F/ x4) | %77
[Q:1/4=56]"_morendo" z8[Q:1/4=52][Q:1/4=48][Q:1/4=44] |[Q:1/4=22] z8 |] %79
V:2
 z8 | z8 | z8 | z8 |!p! [F,C]2 [F,C]2 [F,D]3 [F,D] | [F,C]2 [F,C]2 [F,D]3!p! [F,D] | %6
"^cresc." [D,D]2 [D,C]2 [D,B,]2 z2 | [D,B,]2 [F,C]2 [F,D]2 z2 | x6 G,2 | F,2 x2 x4 | %10
!f! E2 F,2!p!"_dim." F,2!pp! G,E |!p! D2 z2 z4 | z8 | z4 E2 C2 | D2 z2 z4 | %15
!pp!!ped! (3B,,,D,B, (3D,F,B, (3D,F,B, (3D,F,B, | (3D,F,B, (3D,F,B, (3D,F,B, (3D,F,B,!ped-up! | %17
!pp!!ped! (3F,,F,A, (3C,F,A, (3C,F,A, (3C,F,A, | (3C,F,A, (3C,F,A, (3C,F,A, (3C,F,A,!ped-up! | %19
!ped! (3B,,F,B, (3B,,F,B,!ped-up!!ped! (3E,G,B, (3E,G,B,!ped-up! | %20
!ped! (3C, G,C (3C,G,C!ped-up!!ped! (3F,A,C (3F,A,C!ped-up! | %21
!ped! (3D,A,D (3D,A,!ped-up!D!ped! (3G,B,D (3G,B,D!ped-up! | %22
!ped! (3G,B,^E (3G,B,E (3G,B,C (3G,B,C!ped-up! |!ped! F,2 z2!ped-up! z4 | z8 | z8 | z8 | %27
!pp!!ped! (3=D,,=A,=D (3F,A,D (3F,A,D (3F,A,D | (3F,=A,=D (3F,A,D (3F,A,D!ped-up! (3F,A,F, | %29
!ped! (3=A,, =G,C (3E,G,C (3E,G,C (3E,G,C | %30
 (3E,=G,C (3E,G,C!ped-up!!ped! (3E,G,C!ped-up!!ped! (3E,G,C!ped-up! | [=D,=D]2 z2 z4 | z8 | z8 | %34
[K:treble] (([=DF]2 [E=G]/)).[F=A]/.[GB]/.[A^c]/ .[B=d]/.[ce]/.[df]/.[e=g]/ .[f=a]/.[eg]/.[df]/.[ce]/ | %35
 .[F=d]/.[Ec]/.[=DB]/.[C=A]/[K:bass] .[B,=G]/.[=A,F]/.[=G,E]/.[F,D]/ .[E,C]/.[B,D]/.[CE]/.[DF]/[K:treble] .[E=G]/.[^DF]/.[EG]/.[CE]/ | %36
 .[E=G]/.[CE]/.[EG]/.[^DF]/ .[EG]/.[DF]/.[EG]/.[CE]/ .[EG]/.[CE]/.[EG]/.[DF]/ .[EG]/.[DF]/.[EG]/.[CE]/ | %37
 .[E=G]/.[CE]/.[EG]/.[^DF]/ .[EG]/.[CE]/.[EG]/.[DF]/!ped! .[EG]/.[CE]/.[EG]/.[CE]/ .[EG]/.[CE]/.[EG]/.[CE]/ | %38
 z2 [=A,CE] z!ped-up!!ped! z2 [A,=C=DF] z!ped-up! | z [B,=D=G] z [B,DE^G] z [^CE=A] z [CE^A] | %40
!ped! z [=DFB] z2 z!ped-up!!ped! [D=FB] z2!ped-up! | %41
!ped! z [E=G=c]!ped-up!!ped! z [EG^c]!ped-up!!ped! z [^F=A=d]!ped-up!!ped! z [FA^d]!ped-up! | %42
!ped! z [=GBe] z2!ped-up!!ped! z [^GB^e] z2!ped-up! |!ped! z [Bf] z2 z4!ped-up! | %44
[K:bass]!ped! (3F,B,D (3F,B,D!ped-up!!ped! (3F,A,C!ped-up!!ped! (3F,B,D!ped-up! | %45
!ped! (3G,B,E!ped-up!!ped! (3G,CE!ped-up! (3F,A,C!ped! (3E,A,C!ped-up! | %46
 (3D,F,B, (3=D,F,B, (3B,,G,B,!ped! (3F,A,C!ped-up! | (3F,B,D (3F,B,D (3F,A,C!ped! (3F,A,C!ped-up! | %48
!ped! (3F,CE (3F,CE!ped-up!!ped! (3F,B,D (3F,B,D!ped-up! | %49
!ped! (3F,CE (3F,CE!ped-up!!ped! (3F,B,D (3F,B,D!ped-up! | %50
 (3F,B,D (3D,^A,C!ped! (3D,G,B, (3D,G,B, | (3D,G,B,!ped-up! (3F,A,C!ped! (3F,B,D (3F,B,D!ped-up! | %52
 z8 | z4[K:treble]!ped! G/D/B,/!ped!G/!ped-up! ^^F/E/C/F/ | %54
!ped! G/D/B,/G/!ped-up!!ped! A/=G/E/A/!ped-up!!ped! B/F/D/F/!ped-up!!ped! d/c/^G/e/!ped-up! | %55
!ped! [FBd] z z2!ped-up!!ped! [Fce] z z2!ped-up! | z8 |!ped! z8!ped-up! | %58
!ped! z z/ ([ce]/F/) z/ z/ ([ce]/F/) z/ z/ ([ce]/F/) ([ce]/F/)([ce]/!ped-up! | %59
!ped! F/)(d/B/)(d/ F/)(d/B/)(d/ F/)(c/A/)(c/ F/)(d/B/)(d/!ped-up! | %60
!ped! ^G/)(e/B/)(e/ G/)(e/!ped-up!c/)(e/!ped-up!!ped! F/)(c/A/)(c/ F/)(c/A/)(c/ | %61
!ped! F/)(f/B/)(f/ F/)(f/B/)(f/!ped-up!!ped! G/)(g/B/)(g/!ped-up!!ped! A/)(a/c/)(a/!ped-up! | %62
!ped! B/)(b/d/)(b/ F/)(d/B/)(d/!ped-up!!ped! F/)(c/A/)(c/ F/)(c/A/)(c/!ped-up! | %63
!ped! F/)(e/c/)(e/ F/)(e/c/)(e/!ped-up!!ped! F/)(d/B/)(d/ F/)(d/B/)(d/!ped-up! | %64
!ped! F/)(e/c/)(e/ F/)(e/c/)(e/!ped-up!!ped! F/)(d/B/)(d/ F/)(d/B/)(d/!ped-up! | %65
 F/)(d/B/)(d/ ^^F/)!ped-up!(d/A/)(d/!ped! G/)(d/B/)(d/ G/)(d/B/)(d/ | %66
 G/)(d/B/)(d/ A/)!ped-up!(f/c/)(f/!ped! B/)(f/d/)(B/ F/)(D/B,/)(D/ | %67
 B,/)(G/E/)(G/ C/)(A/F/)(A/ D/)(B/F/)(B/ G/)(B/G/)(e/ | %68
 F/)(d/B/)(d/ F/)(e/c/)(e/!ped! G/)(d/B/)(d/ G/)(d/B/)(d/!ped-up! | %69
 G/)(d/B/)(d/ A/)(f/c/)(f/ B/)(f/d/)(f/ B/)(g/e/)(g/ | %70
!ped! B/)(f/d/)(f/!ped-up! B/)(b/d/)(b/!ped-up!!ped! c/)(a/e/)(a/ c/)(a/e/)a/ | %71
!ped! =c/=a/d/a/ c/a/d/a/!ped-up!!ped! B/=g/e/g/ B/g/e/g/!ped-up! | %72
 =A/f/=c/f/!ped! =G/e/^c/e/ G/e/c/e/ F/e/c/e/!ped-up! | %73
 F/(d/B/)(d/ =G/)(e/B/)(e/!ped! F/)(e/c/)(e/!ped-up! F/)(e/c/)e/ | %74
 F/(d/B/)(d/ =G/)(e/B/)(e/!ped! F/)(e/c/)(e/ F/)(e/c/)(e/!ped-up! | %75
!ped! F/)(d/B/)(d/ D/)(B/F/)(B/ B,/)(F/D/)(F/[K:bass] F,/)(D/B,/)(D/!ped-up! | %76
 x4) F,/(D/B,/)(D/ D,/)(B,/F,/)(B,/ | %77
 B,,/)(F,/D,/)(F,/ B,,/)(F,/D,/)(F,/ B,,/)(F,/D,/)(F,/ B,,/)(F,/D,/)(F,/ |!ppp! B,,) z z2 z4 |] %79
V:3
 x8 | x8 | x8 | x8 | x8 | x8 | x8 | x8 | E2 F,2 F,2 G,B, | B,2 A,2 B,2 z2 | x8 | x8 | x8 | x8 | %14
 x8 | x8 | x8 | x8 | x8 | x8 | C,8 | x8 | x8 | x8 | x8 | x8 | x8 | x8 | x8 | x8 | x8 | x8 | x8 | %33
 x8 |[K:treble] x8 | x2[K:bass] x4[K:treble] x2 | x8 | x8 | x8 | x8 | x8 | x8 | x8 | x8 | %44
[K:bass] x8 | x8 | x8 | x8 | x8 | x8 | x8 | x8 | x8 | x4[K:treble] G,2 ^^F,2 | G,2 A,2 B,2 E2 | %55
 x8 | x8 | x8 | x8 | x8 | x8 | x8 | x8 | x8 | x8 | x8 | x8 | x8 | x8 | x8 | x8 | x8 | x8 | x8 | %74
 x8 | x6[K:bass] x2 | D,/(B,/F,/)(B,/ B,,/)(F,/D,/)(F,/ F,,/)(D,/B,,/)(D,/ D,,/)(B,,/F,,/)(B,,/ | %77
 B,,,/)(F,,/D,,/)(F,,/ B,,,/)(F,,/D,,/)(F,,/ B,,,/)(F,,/D,,/)(F,,/ B,,,/)(F,,/D,,/)(F,,/ | %78
 B,,,) x x2 x4 |] %79
V:4
 x8 | x8 | x8 | x8 | x8 | x8 | x8 | x8 | x8 | x8 | x8 | x8 | x8 | x8 | x6 x3/2 x/4 f/4 | x8 | x8 | %17
 x8 | x8 | x8 | x8 | x2 x x/ (3B/4c/4d/4 x4 | x8 | x8 | x8 | x8 | x8 | x8 | x8 | x8 | x8 | x8 | %32
 x8 | x8 | x8 | x8 | x8 | x8 | x8 | x8 | x8 | x8 | x8 | x8 | x8 | G2 c x/ B/ B A3 | x8 | x8 | %48
 [Fc]2 x2 [df]2 [FBd][FBd] | x2 [=ef]2 [df]2 [FBd][FBd] | x8 | x8 | x8 | x4 B/b/d/B/ a/e/c/a/ | %54
 B/b/d/B/ c'/=g/e/c'/ d/d'/f/d/ f'/e'/^g/c'/ | x4!8va(! x4!8va)! | x8 | x8 | x8 | x8 | x8 | x8 | %62
 x8 | x8 | x8 | x8 | x8 | x8 | x8 | x8 | x8 | x8 | x8 | x8 | x8 | x8 | x8 | x8 | x8 |] %79
V:5
!p! [F,B,D]4 [F,A,C]2 [F,B,D]2 | [G,B,]2 [G,CE]2 [F,A,C]4 | %2
[K:treble] [B,F]2 [B,F]2 [B,^EG]2 [C=EA]2 | [B,DB]2 [B,D]2 [A,C]4 | F2 e2 d>B FF | %5
 F2 e2 d>B F!p![DF] |"_cresc." [DF]2 [C^^F]2 [B,G]2 z2 | [B,G]2 [CA]2 [B,DB]2 z2 | %8
!f! [B,GB]2 [CAc]2 [DBd]2"_dim." [B,G][EB] | [DB]2 [CEA]2!p! [B,DB]2 z2 | %10
!f! [GB]2 [Ac]2!p!"_dim." [Bd]2!pp! [EG][B,B] | [B,DB]2 z2 [CEA]2 z2 | B2 z2 e2 c2 | d2 z2 e2 c2 | %14
!p! d2 z2 [B,D]2 z2 |!pp! [B,D]8- | [B,D]8 | [CE]8- | [CE]8 | [B,D]4 [B,G]4 | [CG]4 [CA]4 | %21
 [DFA]4 [B,DB]2 D2 | B6 ^E2 | F2 z2 z4 | z8 | [A,F]2 [CG]2 [CA]2 z2 | %26
"_cresc." A2 B2!pp!!>(! c4!>)! |!pp! [F=d]8- | [Fd]8 | [E=Gc]8- | [EGc]8 |!pp! [F=d] z x2 x4 | %32
!pp! [=DF]2 [E=G]2 [F=A]2 z2 |!p!"_cresc." [B,=GB]2 [=C=A=c]2 [=DB=d]2 [DEBe]2 | [F=df] z z2 z4 | %35
 z8 | z8 | z8 |!p! [=A,CE] z z2 [=C=D] z z2 | [B,=D] z [B,E] z [^CE] z [CF] z | %40
 [=DF] z z2 [D=G] z z2 | [=G,E=G] z [=A,E=A] z [A,FA] z [B,FB] z | [B,=GB] z z2 [B,^GB] z z2 | %43
 [B,FB] z z2 z4 |!pp! [B,D] z [B,D] z [A,C] z [B,D] z | B, z [CE] z [A,C] z z2 | %46
 [B,F] z [B,F] z [B,^EG] z [=EA] z | [DB] z [B,D] z [A,C] z z2 | [CE] z [CE] z F2 [Dd]2 | %49
 [Ee]2 [CE] z F2 [Dd]2 |"_cresc." [Dd]2 z2 [GBg]3 [GBg] | [GBg] z z2!mp! [Bdb]3 [Bdb] | %52
!f! [Bgb]2 [cac']2 [dbd']2 [Geg][Bb] |"_dim." [Bdb]2 [Aea]2!p! [Bdb]2 z2 | %54
!pp! [B,B]"_cresc." z [Cc] z [Dd] z [G,B,G] z | [DB] z z2!mp! [CEA] z z2 | z8 | z8 |!p! [ce]8 | %59
!p! [Bd]2 [DBd]2 [CAc]2 [DBd]2 | [EGB]2 [EGe]2 [CAc]4 | [Ff]2 [FBf]2 [GB^eg]2 [Ac=ea]2 | %62
 [Bdb]2 [DFBd]2 [CFAc]4 |!p! [CEF]2 [Fce]2 f2 d'2 | e' x [Fce]2 f2 d'f | %65
 [FBdf]2 [^^FAc^^f]2 [GBg]2 z2 | [GBg]2 [Aca]2 [Bdb]2 z2 | %67
"_cresc." [Bgb]2 [cac']2 [dbd']2 [Geg][Bgb] |!mp!!>(! [Bdb]2 [Aca]2 [Bb]2!>)! z2!p! | %69
 [Bdgb]"_cresc." z [cfac'] z [dfbd']!mp! z"_dim." [GBg] z | [Bdb] z [Bdb] z [Aca] z [Aca] z | %71
 [=A=c=a] z [Aca] z [=GB=g] z [GBg] z | [F=Af] z [E^Ae] z [EAe] z [Ece] z |!pp! d2 e6 | d2 e6 | %75
 [FBd] z [DFd] z [DFd] z [DFd] z | [DFd] z [B,DB] z [DFd] z [B,DB] z | [B,DB] z z2!pp! [B,B] z z2 | %78
!pp! B z z2 z4 |] %79
V:6
 [B,,,B,,]2 z2 .F,,2 .[B,,,B,,]2 | .[E,,E,]2 .[C,,C,]2 .F,,2 z .[E,,E,] | %2
 F,2 .[=D,,=D,]2 .[C,,C,]2 .[F,,,F,,]2 | z2 F,2 F,4 | %4
 [A,,,A,,] z !>![F,,,F,,] z [B,,,B,,] z z [B,,,B,,] | %5
 [A,,,A,,] z !>![F,,,F,,] z [B,,,B,,] z z [B,,,B,,] | [B,,,B,,]2 [D,,D,]2 [G,,,G,,]2 z2 | %7
 [G,,G,]2 !>![F,,F,]2 [B,,F,]2 z2 | x6 E,G, | [F,,F,]2 !>![F,,,F,,]2 [G,,,G,,]2 z2 | %10
 [E,,E,]2 [C,,C,]2 [B,,,B,,]2 [E,,E,][G,,G,] |!p! [F,,F,]2 z2 [F,,F,]2 z2 | z2 G,2 F,3 A, | %13
 B,2 =G,2 F,3 A, | B,2 z2 F,2 z2 | F,8- | F,8 |!ped! F,8-!ped-up! | F,8 | %19
 F,4 (G,2[I:staff -1] E2) |[I:staff +1] [C,,C,]4 [F,,F,]4 | x4 G,2 G,2 |!ped! G,6 G,2!ped-up! | %23
 A,2 z2 z4 | z8 | [F,,F,]2 [C,^E,]2 [F,,F,]2 z2 | [F,,F,]2 [B,,F,]2 [=A,,=G,]4 | %27
!ped! =A,8-!ped-up! | A,8 |!ped! =A,8-!ped-up! | A,8 | =D2 =A,2 D2 z2 | z8 | =G,2 =A,2 B,2 B,2 | %34
 =A,8- |!p! A,4- A, z z2 | z8 | z8 | =A,, z z2 [=D,,=D,] z z2 | %39
 [=G,,=D,=G,] z [E,,E,] z [=A,,E,=A,] z !>![F,,F,] z | [B,,F,B,] z z2 [=G,,=G,] z z2 | %41
 [=C,,=C,] z [=A,,,=A,,] z [=D,,=D,] z [B,,,B,,] z | [E,,E,] z z2 [C,,C,] z z2 | %43
 [^D,,^D,] z z2 z4 | F, z F, z F, z F, z | G, z G, z [F,,F,] z z [E,,E,] | %46
 F, z F, z [C,,C,] z [F,,F,] z | [B,,,B,,] z F, z [F,,F,] z z2 | F, z F, z F,2 x [B,,F,] | %49
 [A,,F,] z F, z F,2 x [B,,F,] | [B,,,B,,] z [D,,D,] z [G,,,G,,] z z2 | %51
 [G,,G,] z !>![F,,F,] z [B,,,B,,] z z2 | %52
!mf!!ped! (3E,[G,B,]E!ped-up!!ped! (3C,CE!ped-up!!ped! (3B,,[F,B,]D!ped-up!!ped! (3E,[G,B,]E!ped-up! | %53
!ped! (3F,[B,D]F,!ped-up!!ped! (3z CF, G,2 z2!ped-up! | [G,,G,] z [A,,A,] z [B,,B,] z [E,,E,] z | %55
 !>![F,,F,] z z2 !>![F,,F,] z z2 | z8 | z8 |!ped! z8!ped-up! | %59
 z [B,,F,B,] z [B,,,B,,] z [F,,F,] z [B,,,B,,] | z [E,,E,] z [C,,C,] z [F,,F,] z [E,,E,] | %61
 z [D,,D,] z [=D,,=D,] z [C,,C,] z !>![F,,,F,,] | z [B,,,B,,] z [D,,D,] z [F,,F,] z [F,,F,] | %63
!ped! z [A,,F,] z!ped-up!!ped! [F,,F,] z [B,,F,] F[DF]!ped-up! | %64
!ped! [A,CF]2 z!ped-up!!ped! x z x F[DF]!ped-up! | z [B,,B,] z [D,,D,] z [G,,D,G,] z [G,B,D] | %66
 z [G,,G,] z [F,,F,] z [B,,F,B,] z [B,DF] | z [E,,E,] z [C,,C,] z [B,,,B,,] z [E,,E,] | %68
 z [F,,F,] z [F,CE] z [G,B,D] z [G,DG] | z [G,,G,] z [F,,F,] z [B,,B,] z [E,,E,] | %70
 z [F,,F,] z [F,B,D] z [F,,F,] z [F,CE] |!ped! z B,, z B,,!ped-up!!ped! z B,, z B,,!ped-up! | %72
!ped! z B,,!ped-up!!ped! [=G,^A,^C] B,, [G,A,C] B,,!ped-up!!ped! [F,C] B,,!ped-up! | %73
 B,2 =G,2 F,2 A,2 | B,2 =G,2 F,2 A,2 | B, [B,,F,] z [B,,F,B,] z [B,,F,B,] z [B,,F,B,] | %76
 z [B,,F,] z [B,,D,F,] z [B,,D,F,] z [B,,D,F,] | z4 [B,,,B,,] z z2 | B,,8 |] %79
V:7
 x8 | x8 | .[D,,D,]2 x2 x4 | .[B,,,B,,]2 .[D,,D,]2 .F,,2 z2 | x8 | x8 | x8 | x8 | %8
 [E,,E,]2 [C,,C,]2 [B,,,B,,]2 [E,,E,]2 | x8 | x8 | x8 | [B,,,B,,]8 | B,,8 | B,,2 x2 [B,,,B,,]2 x2 | %15
 [B,,,B,,]8- | [B,,,B,,]8 | !>![F,,,F,,]8- | !>![F,,,F,,]8 | [B,,,B,,]4 [E,,E,]4 | x8 | %21
 [D,,D,]4 G,,4 | [C,,C,]6 [C,,C,]2 | [F,,F,]2 x2 x4 | x8 | x8 | x8 | !>![=D,F,]2 z2 z4 | x8 | %29
 !>!=A,, z z2 z4 | x8 | =D, z x2 x4 | x8 | =G,, z z2 =G,2 ^G,2 | =A,, z z2 z4 | x8 | x8 | x8 | x8 | %39
 x8 | x8 | x8 | x8 | x8 | [B,,,B,,] x B,, x F,, x B,, x | [E,,E,] x [C,,C,] x x4 | %46
 [D,,D,] x [=D,,=D,] x x4 | x2 [D,,D,] x x4 | [A,,,A,,] x !>![F,,,F,,] x [B,,,B,,] z z x | %49
 x x !>![F,,,F,,] x [B,,,B,,] z z x | x8 | x8 | [E,,E,]2 [C,,C,]2 [B,,,B,,]2 [E,,E,]2 | %53
 !>![F,,F,]2 !>!F,,2 G,,2 x2 | x8 | x8 | x8 | x8 | x8 | x8 | x8 | x8 | x8 | x6 z B, | %64
 z A,, x [F,,F,] x [B,,F,] z B, | x8 | x8 | x8 | x8 | x8 | x8 | x8 | x8 | %73
 z .B,, z .B,, z .B,, z .B,, | z .B,, z .B,, z .B,, z .B,, | x8 | x8 | x8 | B,,, z z2 z4 |] %79
V:8
 x8 | x8 |[K:treble] x8 | x8 | x8 | x8 | x8 | x8 | x8 | x8 | x8 | x8 | [B,D]2 E6 | D2 E6 | %14
 D2 x2 x2 x2 | x8 | x8 | x8 | x8 | x8 | E6 F2 | x8 | ^E6 x2 | x8 | x8 | x8 | C2 =D2 E2!pp! =A2 | %27
 =A2 z2 z4 | x8 | x8 | x8 | x2 E2 F2 z2 | =A, x x2 x4 | x8 | x8 | x8 | x8 | x8 | x8 | x8 | x8 | %41
 x8 | x8 | x8 | x8 | x8 | x8 | x8 | x4 [B,D] z x2 | x4 [B,D] z x2 | x8 | x8 | x8 | x8 | x8 | x8 | %56
 x8 | x8 | z4 F4- | F x x2 x4 | x8 | x8 | x8 | x4 [Fd]>B z2 | z4 [Fd]>B x2 | x8 | x8 | x8 | x8 | %69
 x8 | x8 | [=CDF] x [CDF] x [B,E] x [B,E] x | [=A,=CD] x x2 x x x x | F2 E4 F2 | F2 E4 F2 | x8 | %76
 x8 | x8 | B,8 |] %79
V:9
 x8 | x8 |[K:treble] x8 | x8 | x8 | x8 | x8 | x8 | x8 | x8 | x8 | x8 | x8 | x8 | x8 | x8 | x8 | %17
 x8 | x8 | x8 | x8 | x8 | x4 B,4 | x8 | x8 | x8 | x8 | x8 | x8 | x8 | x8 | x8 | x8 | x8 | x8 | x8 | %36
 x8 | x8 | x8 | x8 | x8 | x8 | x8 | x8 | x8 | x8 | x8 | x8 | x8 | x8 | x8 | x8 | x8 | x8 | x8 | %55
 x8 | x8 | x8 | x8 | x8 | x8 | x8 | x8 | x8 | x8 | x8 | x8 | x8 | x8 | x8 | x8 | x8 | x8 | B4 c4 | %74
 B4 c4 | x8 | x8 | x8 | x8 |] %79
V:10
 x8 | x8 | x8 | x8 | x8 | x8 | x8 | x8 | x8 | x8 | x8 | x8 | x8 | x8 | x8 | x8 | x8 | x8 | x8 | %19
 x8 | x8 | x8 | x8 | x8 | x8 | x8 | x8 | x8 | x8 | x8 | x8 | F,2 x2 x4 | x8 | x8 | x8 | x8 | x8 | %37
 x8 | x8 | x8 | x8 | x8 | x8 | x8 | x8 | x8 | x8 | x8 | x8 | x8 | x8 | x8 | x8 | x8 | x8 | x8 | %56
 x8 | x8 | x8 | x8 | x8 | x8 | x8 | x8 | x8 | x8 | x8 | x8 | x8 | x8 | x8 | x8 | x8 | x8 | x8 | %75
 x8 | x8 | x8 | x8 |] %79

